Waterleaf/32x32/apps/applications-featured.svg

<?xml version="1.0" encoding="UTF-8" standalone="no"?>
<svg xmlns="http://www.w3.org/2000/svg" height="32" width="32" version="1">
 <path d="m15.5 4 4 8.5l8.5 1-6 6.5 1.5 9-8-4.5-8 4.5 1.5-9-6-6.5 8.5-1z" fill="#fecd38"/>
 <path opacity=".2" d="m3.832 14.402-0.832 0.098 5.8594 6.348 0.1406-0.848-5.168-5.598zm23.336 0l-5.168 5.598 0.141 0.848 5.859-6.348-0.832-0.098zm-11.668 10.098-7.8164 4.396-0.1836 1.104l8-4.5 8 4.5-0.184-1.104-7.816-4.396z"/>
 <path opacity=".2" d="m15.5 4-4 8.5-8.5 1 0.83203 0.90234l7.668-0.902 4-8.5 4 8.5 7.668 0.90234 0.832-0.902-8.5-1-4-8.5zm-6.6406 16.848-1.3594 8.152 0.1836-0.104 1.3164-7.896-0.1406-0.152zm13.281 0l-0.14 0.152 1.316 7.896 0.184 0.104-1.359-8.152z" fill="#fff"/>
</svg>

<?xml version="1.0" encoding="UTF-8" standalone="no"?>
<svg
   xmlns:dc="http://purl.org/dc/elements/1.1/"
   xmlns:cc="http://creativecommons.org/ns#"
   xmlns:rdf="http://www.w3.org/1999/02/22-rdf-syntax-ns#"
   xmlns:svg="http://www.w3.org/2000/svg"
   xmlns="http://www.w3.org/2000/svg"
   xmlns:sodipodi="http://sodipodi.sourceforge.net/DTD/sodipodi-0.dtd"
   xmlns:inkscape="http://www.inkscape.org/namespaces/inkscape"
   height="32"
   width="32"
   version="1"
   id="svg8"
   sodipodi:docname="applications-featured.svg"
   inkscape:version="0.92.4 (5da689c313, 2019-01-14)">
  <metadata
     id="metadata14">
    <rdf:RDF>
      <cc:Work
         rdf:about="">
        <dc:format>image/svg+xml</dc:format>
        <dc:type
           rdf:resource="http://purl.org/dc/dcmitype/StillImage" />
        <dc:title></dc:title>
      </cc:Work>
    </rdf:RDF>
  </metadata>
  <defs
     id="defs12">
    <filter
       inkscape:collect="always"
       style="color-interpolation-filters:sRGB"
       id="filter829"
       x="-0.00974352"
       width="1.019487"
       y="-0.015616618"
       height="1.0312332">
      <feGaussianBlur
         inkscape:collect="always"
         stdDeviation="0.101495"
         id="feGaussianBlur831" />
    </filter>
  </defs>
  <sodipodi:namedview
     pagecolor="#ffffff"
     bordercolor="#666666"
     borderopacity="1"
     objecttolerance="10"
     gridtolerance="10"
     guidetolerance="10"
     inkscape:pageopacity="0"
     inkscape:pageshadow="2"
     inkscape:window-width="1362"
     inkscape:window-height="695"
     id="namedview10"
     showgrid="false"
     inkscape:zoom="20.85965"
     inkscape:cx="14.514178"
     inkscape:cy="13.797892"
     inkscape:window-x="0"
     inkscape:window-y="0"
     inkscape:window-maximized="1"
     inkscape:current-layer="svg8" />
  <path
     d="m15.5 4 4 8.5l8.5 1-6 6.5 1.5 9-8-4.5-8 4.5 1.5-9-6-6.5 8.5-1z"
     fill="#fecd38"
     id="path2" />
  <path
     d="M 3.832,14.402 3,14.5 8.8594,20.848 9,20 Z m 23.336,0 L 22,20 22.141,20.848 28,14.5 Z M 15.5,24.5 7.6836,28.896 7.5,30 l 8,-4.5 8,4.5 -0.184,-1.104 z"
     id="path4"
     inkscape:connector-curvature="0"
     style="opacity:0.2;filter:url(#filter829)" />
  <path
     opacity=".2"
     d="m15.5 4-4 8.5-8.5 1 0.83203 0.90234l7.668-0.902 4-8.5 4 8.5 7.668 0.90234 0.832-0.902-8.5-1-4-8.5zm-6.6406 16.848-1.3594 8.152 0.1836-0.104 1.3164-7.896-0.1406-0.152zm13.281 0l-0.14 0.152 1.316 7.896 0.184 0.104-1.359-8.152z"
     fill="#fff"
     id="path6" />
</svg>
